Origami/64x64/apps/hitori.svg

<svg width="64" height="64" version="1" xmlns="http://www.w3.org/2000/svg">
 <path d="m4.9996139 15.285361v2.000028c0 0.396406 0.2714039 0.71481 0.6094087 0.71481h10.781354c0.338005 0 0.609408-0.318404 0.609408-0.71481v-2.000028c0 0.396405-0.271403 0.71481-0.609408 0.71481h-10.781354c-0.3380048 0-0.6094087-0.318405-0.6094087-0.71481zm14.0002 0v2.000028c0 0.396406 0.271404 0.71481 0.609409 0.71481h10.781354c0.338005 0 0.610009-0.318404 0.610009-0.71481v-2.000028c0 0.396405-0.272004 0.71481-0.610009 0.71481h-10.780754c-0.338005 0-0.609409-0.318405-0.609409-0.71481zm14.0002 0v2.000028c0 0.396406 0.272004 0.71481 0.610009 0.71481h10.781354c0.336005 0 0.608009-0.318404 0.608009-0.71481v-2.000028c0 0.396405-0.272004 0.71481-0.610009 0.71481h-10.780154c-0.338005 0-0.610009-0.318405-0.610009-0.71481zm14.0002 0v2.000028c0 0.396406 0.272004 0.71481 0.610009 0.71481h10.781354c0.336005 0 0.608009-0.318404 0.608009-0.71481v-2.000028c0 0.396405-0.272004 0.71481-0.610009 0.71481h-10.780154c-0.338005 0-0.610009-0.318405-0.610009-0.71481zm-42.0006 14.0002v2.000028c0 0.396006 0.2714039 0.714011 0.6094087 0.714011h10.781354c0.338005 0 0.609408-0.318005 0.609408-0.714011v-2.000028c0 0.396005-0.271403 0.71401-0.609408 0.71401h-10.781354c-0.3380048 0-0.6094087-0.318005-0.6094087-0.71401zm14.0002 0v2.000028c0 0.396006 0.271404 0.714011 0.609409 0.714011h10.781354c0.338005 0 0.610009-0.318005 0.610009-0.714011v-2.000028c0 0.396005-0.272004 0.71401-0.610009 0.71401h-10.780754c-0.338005 0-0.609409-0.318005-0.609409-0.71401zm14.0002 0v2.000028c0 0.396006 0.272004 0.714011 0.610009 0.714011h10.781354c0.336005 0 0.608009-0.318005 0.608009-0.714011v-2.000028c0 0.396005-0.272004 0.71401-0.610009 0.71401h-10.781354c-0.336005 0-0.608009-0.318005-0.608009-0.71401zm14.0002 0v2.000028c0 0.396006 0.272004 0.714011 0.610009 0.714011h10.781354c0.336005 0 0.608009-0.318005 0.608009-0.714011v-2.000028c0 0.396005-0.272004 0.71401-0.610009 0.71401h-10.781354c-0.336005 0-0.608009-0.318005-0.608009-0.71401zm-42.0006 14.0002v2.000029c0 0.396005 0.2714039 0.71401 0.6094087 0.71401h10.781354c0.338005 0 0.609408-0.318005 0.609408-0.71401v-2.000029c0 0.396006-0.271403 0.71401-0.609408 0.71401h-10.781354c-0.3380048 0-0.6094087-0.318004-0.6094087-0.71401zm14.0002 0v2.000029c0 0.396005 0.271404 0.71401 0.609409 0.71401h10.781354c0.338005 0 0.610009-0.318005 0.610009-0.71401v-2.000029c0 0.396006-0.272004 0.71401-0.610009 0.71401h-10.780754c-0.338005 0-0.609409-0.318004-0.609409-0.71401zm14.0002 0v2.000029c0 0.396005 0.272004 0.71401 0.610009 0.71401h10.781354c0.336005 0 0.608009-0.318005 0.608009-0.71401v-2.000029c0 0.396006-0.272004 0.71401-0.610009 0.71401h-10.781354c-0.336005 0-0.608009-0.318004-0.608009-0.71401zm14.0002 0v2.000029c0 0.396005 0.272004 0.71401 0.610009 0.71401h10.781354c0.336005 0 0.608009-0.318005 0.608009-0.71401v-2.000029c0 0.396006-0.272004 0.71401-0.610009 0.71401h-10.781354c-0.336005 0-0.608009-0.318004-0.608009-0.71401zm-42.0006 14.0002v2.000029c0 0.396005 0.2714039 0.71401 0.6094087 0.71401h10.781354c0.338005 0 0.609408-0.318005 0.609408-0.71401v-2.000029c0 0.396006-0.271403 0.71401-0.609408 0.71401h-10.781354c-0.3380048 0-0.6094087-0.318004-0.6094087-0.71401zm14.0002 0v2.000029c0 0.396005 0.271404 0.71401 0.609409 0.71401h10.781354c0.338005 0 0.610009-0.318005 0.610009-0.71401v-2.000029c0 0.396006-0.272004 0.71401-0.610009 0.71401h-10.780754c-0.338005 0-0.609409-0.318004-0.609409-0.71401zm14.0002 0v2.000029c0 0.396005 0.272004 0.71401 0.610009 0.71401h10.781354c0.336005 0 0.608009-0.318005 0.608009-0.71401v-2.000029c0 0.396006-0.272004 0.71401-0.610009 0.71401h-10.781354c-0.336005 0-0.608009-0.318004-0.608009-0.71401zm14.0002 0v2.000029c0 0.396005 0.272004 0.71401 0.610009 0.71401h10.781354c0.336005 0 0.608009-0.318005 0.608009-0.71401v-2.000029c0 0.396006-0.272004 0.71401-0.610009 0.71401h-10.781354c-0.336005 0-0.608009-0.318004-0.608009-0.71401z" style="opacity:.2"/>
 <rect x="5" y="5" width="12" height="12" rx=".61" ry=".716" style="fill:#4f4f4f"/>
 <rect x="19" y="5" width="12" height="12" rx=".61" ry=".716" style="fill:#cccccc"/>
 <rect x="33" y="5" width="12" height="12" rx=".61" ry=".716" style="fill:#ff5757"/>
 <rect x="47" y="5" width="12" height="12" rx=".61" ry=".716" style="fill:#cccccc"/>
 <rect x="5" y="19" width="12" height="12" rx=".61" ry=".716" style="fill:#cccccc"/>
 <rect x="19" y="19" width="12" height="12" rx=".61" ry=".716" style="fill:#cccccc"/>
 <rect x="33" y="19" width="12" height="12" rx=".61" ry=".716" style="fill:#ff5757"/>
 <rect x="47" y="19" width="12" height="12" rx=".61" ry=".716" style="fill:#cccccc"/>
 <rect x="5" y="33" width="12" height="12" rx=".61" ry=".716" style="fill:#cccccc"/>
 <rect x="19" y="33" width="12" height="12" rx=".61" ry=".716" style="fill:#4f4f4f"/>
 <rect x="33" y="33" width="12" height="12" rx=".61" ry=".716" style="fill:#cccccc"/>
 <rect x="47" y="33" width="12" height="12" rx=".61" ry=".716" style="fill:#4ac73e"/>
 <rect x="5" y="47" width="12" height="12" rx=".61" ry=".716" style="fill:#cccccc"/>
 <rect x="19" y="47" width="12" height="12" rx=".61" ry=".716" style="fill:#cccccc"/>
 <rect x="33" y="47" width="12" height="12" rx=".61" ry=".716" style="fill:#cccccc"/>
 <rect x="47" y="47" width="12" height="12" rx=".61" ry=".716" style="fill:#cccccc"/>
 <path d="M 5.609375 5 C 5.2713702 5 5 5.3184381 5 5.7148438 L 5 6.7148438 C 5 6.3184381 5.2713702 6 5.609375 6 L 16.390625 6 C 16.72863 6 17 6.3184382 17 6.7148438 L 17 5.7148438 C 17 5.3184382 16.72863 5 16.390625 5 L 5.609375 5 z" style="fill:#ffffff;opacity:.1"/>
 <path d="M 19.609375 5 C 19.27137 5 19 5.3184381 19 5.7148438 L 19 6.7148438 C 19 6.3184381 19.27137 6 19.609375 6 L 30.390625 6 C 30.72863 6 31 6.3184382 31 6.7148438 L 31 5.7148438 C 31 5.3184382 30.72863 5 30.390625 5 L 19.609375 5 z" style="fill:#ffffff;opacity:.2"/>
 <path d="m33.607422 5c-0.337087 0.0012409-0.607422 0.3192127-0.607422 0.7148438v1c0-0.3956311 0.270335-0.7136029 0.607422-0.7148438h0.001953 10.779297c0.338005 0 0.611328 0.3184382 0.611328 0.7148438v-1c0-0.3964056-0.273323-0.7148438-0.611328-0.7148438h-10.779297-0.001953z" style="fill:#ffffff;opacity:.2"/>
 <path d="m47.607422 5c-0.337087 0.0012409-0.607422 0.3192127-0.607422 0.7148438v1c0-0.3956311 0.270335-0.7136029 0.607422-0.7148438h0.001953 10.779297c0.338005 0 0.611328 0.3184382 0.611328 0.7148438v-1c0-0.3964056-0.273323-0.7148438-0.611328-0.7148438h-10.779297-0.001953z" style="fill:#ffffff;opacity:.2"/>
 <path d="m5.609375 19c-0.3380048 0-0.609375 0.318838-0.609375 0.714844v1c0-0.396006 0.2713702-0.714844 0.609375-0.714844h10.78125c0.338005 0 0.609375 0.318838 0.609375 0.714844v-1c0-0.396006-0.27137-0.714844-0.609375-0.714844h-10.78125z" style="fill:#ffffff;opacity:.2"/>
 <path d="m19.609375 19c-0.338005 0-0.609375 0.318838-0.609375 0.714844v1c0-0.396006 0.27137-0.714844 0.609375-0.714844h10.78125c0.338005 0 0.609375 0.318838 0.609375 0.714844v-1c0-0.396006-0.27137-0.714844-0.609375-0.714844h-10.78125z" style="fill:#ffffff;opacity:.2"/>
 <path d="m33.607422 19c-0.337087 0.001239-0.607422 0.319611-0.607422 0.714844v1c0-0.395233 0.270335-0.713605 0.607422-0.714844h0.001953 10.779297c0.338005 0 0.611328 0.318838 0.611328 0.714844v-1c0-0.396006-0.273323-0.714844-0.611328-0.714844h-10.779297-0.001953z" style="fill:#ffffff;opacity:.2"/>
 <path d="m47.607422 19c-0.337087 0.001239-0.607422 0.319611-0.607422 0.714844v1c0-0.395233 0.270335-0.713605 0.607422-0.714844h0.001953 10.779297c0.338005 0 0.611328 0.318838 0.611328 0.714844v-1c0-0.396006-0.273323-0.714844-0.611328-0.714844h-10.779297-0.001953z" style="fill:#ffffff;opacity:.2"/>
 <path d="m5.609375 33c-0.3380048 0-0.609375 0.318838-0.609375 0.714844v1c0-0.396006 0.2713702-0.714844 0.609375-0.714844h10.78125c0.338005 0 0.609375 0.318838 0.609375 0.714844v-1c0-0.396006-0.27137-0.714844-0.609375-0.714844h-10.78125z" style="fill:#ffffff;opacity:.2"/>
 <path d="m19.609375 33c-0.338005 0-0.609375 0.318838-0.609375 0.714844v1c0-0.396006 0.27137-0.714844 0.609375-0.714844h10.78125c0.338005 0 0.609375 0.318838 0.609375 0.714844v-1c0-0.396006-0.27137-0.714844-0.609375-0.714844h-10.78125z" style="fill:#ffffff;opacity:.1"/>
 <path d="m33.607422 33c-0.337087 0.001239-0.607422 0.319611-0.607422 0.714844v1c0-0.395233 0.270335-0.713605 0.607422-0.714844h0.001953 10.779297c0.338005 0 0.611328 0.318838 0.611328 0.714844v-1c0-0.396006-0.273323-0.714844-0.611328-0.714844h-10.779297-0.001953z" style="fill:#ffffff;opacity:.2"/>
 <path d="m47.607422 33c-0.337087 0.001239-0.607422 0.319611-0.607422 0.714844v1c0-0.395233 0.270335-0.713605 0.607422-0.714844h0.001953 10.779297c0.338005 0 0.611328 0.318838 0.611328 0.714844v-1c0-0.396006-0.273323-0.714844-0.611328-0.714844h-10.779297-0.001953z" style="fill:#ffffff;opacity:.2"/>
 <path d="m5.609375 47c-0.3380048 0-0.609375 0.318838-0.609375 0.714844v1c0-0.396006 0.2713702-0.714844 0.609375-0.714844h10.78125c0.338005 0 0.609375 0.318838 0.609375 0.714844v-1c0-0.396006-0.27137-0.714844-0.609375-0.714844h-10.78125z" style="fill:#ffffff;opacity:.2"/>
 <path d="m19.609375 47c-0.338005 0-0.609375 0.318838-0.609375 0.714844v1c0-0.396006 0.27137-0.714844 0.609375-0.714844h10.78125c0.338005 0 0.609375 0.318838 0.609375 0.714844v-1c0-0.396006-0.27137-0.714844-0.609375-0.714844h-10.78125z" style="fill:#ffffff;opacity:.2"/>
 <path d="m33.607422 47c-0.337087 0.001239-0.607422 0.319611-0.607422 0.714844v1c0-0.395233 0.270335-0.713605 0.607422-0.714844h0.001953 10.779297c0.338005 0 0.611328 0.318838 0.611328 0.714844v-1c0-0.396006-0.273323-0.714844-0.611328-0.714844h-10.779297-0.001953z" style="fill:#ffffff;opacity:.2"/>
 <path d="m47.607422 47c-0.337087 0.001239-0.607422 0.319611-0.607422 0.714844v1c0-0.395233 0.270335-0.713605 0.607422-0.714844h0.001953 10.779297c0.338005 0 0.611328 0.318838 0.611328 0.714844v-1c0-0.396006-0.273323-0.714844-0.611328-0.714844h-10.779297-0.001953z" style="fill:#ffffff;opacity:.2"/>
</svg>

<svg xmlns="http://www.w3.org/2000/svg" width="64" height="64" version="1">
 <path style="opacity:0.2" d="m 4.9996139,15.285361 0,2.000028 c 0,0.396406 0.2714039,0.71481 0.6094087,0.71481 l 10.7813544,0 c 0.338005,0 0.609408,-0.318404 0.609408,-0.71481 l 0,-2.000028 c 0,0.396405 -0.271403,0.71481 -0.609408,0.71481 l -10.7813544,0 c -0.3380048,0 -0.6094087,-0.318405 -0.6094087,-0.71481 z m 14.0002001,0 0,2.000028 c 0,0.396406 0.271404,0.71481 0.609409,0.71481 l 10.781354,0 c 0.338005,0 0.610009,-0.318404 0.610009,-0.71481 l 0,-2.000028 c 0,0.396405 -0.272004,0.71481 -0.610009,0.71481 l -10.780754,0 c -0.338005,0 -0.609409,-0.318405 -0.609409,-0.71481 z m 14.0002,0 0,2.000028 c 0,0.396406 0.272004,0.71481 0.610009,0.71481 l 10.781354,0 c 0.336005,0 0.608009,-0.318404 0.608009,-0.71481 l 0,-2.000028 c 0,0.396405 -0.272004,0.71481 -0.610009,0.71481 l -10.780154,0 c -0.338005,0 -0.610009,-0.318405 -0.610009,-0.71481 z m 14.0002,0 0,2.000028 c 0,0.396406 0.272004,0.71481 0.610009,0.71481 l 10.781354,0 c 0.336005,0 0.608009,-0.318404 0.608009,-0.71481 l 0,-2.000028 c 0,0.396405 -0.272004,0.71481 -0.610009,0.71481 l -10.780154,0 c -0.338005,0 -0.610009,-0.318405 -0.610009,-0.71481 z m -42.0006001,14.0002 0,2.000028 c 0,0.396006 0.2714039,0.714011 0.6094087,0.714011 l 10.7813544,0 c 0.338005,0 0.609408,-0.318005 0.609408,-0.714011 l 0,-2.000028 c 0,0.396005 -0.271403,0.71401 -0.609408,0.71401 l -10.7813544,0 c -0.3380048,0 -0.6094087,-0.318005 -0.6094087,-0.71401 z m 14.0002001,0 0,2.000028 c 0,0.396006 0.271404,0.714011 0.609409,0.714011 l 10.781354,0 c 0.338005,0 0.610009,-0.318005 0.610009,-0.714011 l 0,-2.000028 c 0,0.396005 -0.272004,0.71401 -0.610009,0.71401 l -10.780754,0 c -0.338005,0 -0.609409,-0.318005 -0.609409,-0.71401 z m 14.0002,0 0,2.000028 c 0,0.396006 0.272004,0.714011 0.610009,0.714011 l 10.781354,0 c 0.336005,0 0.608009,-0.318005 0.608009,-0.714011 l 0,-2.000028 c 0,0.396005 -0.272004,0.71401 -0.610009,0.71401 l -10.781354,0 c -0.336005,0 -0.608009,-0.318005 -0.608009,-0.71401 z m 14.0002,0 0,2.000028 c 0,0.396006 0.272004,0.714011 0.610009,0.714011 l 10.781354,0 c 0.336005,0 0.608009,-0.318005 0.608009,-0.714011 l 0,-2.000028 c 0,0.396005 -0.272004,0.71401 -0.610009,0.71401 l -10.781354,0 c -0.336005,0 -0.608009,-0.318005 -0.608009,-0.71401 z m -42.0006001,14.0002 0,2.000029 c 0,0.396005 0.2714039,0.71401 0.6094087,0.71401 l 10.7813544,0 c 0.338005,0 0.609408,-0.318005 0.609408,-0.71401 l 0,-2.000029 c 0,0.396006 -0.271403,0.71401 -0.609408,0.71401 l -10.7813544,0 c -0.3380048,0 -0.6094087,-0.318004 -0.6094087,-0.71401 z m 14.0002001,0 0,2.000029 c 0,0.396005 0.271404,0.71401 0.609409,0.71401 l 10.781354,0 c 0.338005,0 0.610009,-0.318005 0.610009,-0.71401 l 0,-2.000029 c 0,0.396006 -0.272004,0.71401 -0.610009,0.71401 l -10.780754,0 c -0.338005,0 -0.609409,-0.318004 -0.609409,-0.71401 z m 14.0002,0 0,2.000029 c 0,0.396005 0.272004,0.71401 0.610009,0.71401 l 10.781354,0 c 0.336005,0 0.608009,-0.318005 0.608009,-0.71401 l 0,-2.000029 c 0,0.396006 -0.272004,0.71401 -0.610009,0.71401 l -10.781354,0 c -0.336005,0 -0.608009,-0.318004 -0.608009,-0.71401 z m 14.0002,0 0,2.000029 c 0,0.396005 0.272004,0.71401 0.610009,0.71401 l 10.781354,0 c 0.336005,0 0.608009,-0.318005 0.608009,-0.71401 l 0,-2.000029 c 0,0.396006 -0.272004,0.71401 -0.610009,0.71401 l -10.781354,0 c -0.336005,0 -0.608009,-0.318004 -0.608009,-0.71401 z m -42.0006001,14.0002 0,2.000029 C 4.9996139,59.681995 5.2710178,60 5.6090226,60 l 10.7813544,0 c 0.338005,0 0.609408,-0.318005 0.609408,-0.71401 l 0,-2.000029 c 0,0.396006 -0.271403,0.71401 -0.609408,0.71401 l -10.7813544,0 c -0.3380048,0 -0.6094087,-0.318004 -0.6094087,-0.71401 z m 14.0002001,0 0,2.000029 c 0,0.396005 0.271404,0.71401 0.609409,0.71401 l 10.781354,0 c 0.338005,0 0.610009,-0.318005 0.610009,-0.71401 l 0,-2.000029 c 0,0.396006 -0.272004,0.71401 -0.610009,0.71401 l -10.780754,0 c -0.338005,0 -0.609409,-0.318004 -0.609409,-0.71401 z m 14.0002,0 0,2.000029 c 0,0.396005 0.272004,0.71401 0.610009,0.71401 l 10.781354,0 c 0.336005,0 0.608009,-0.318005 0.608009,-0.71401 l 0,-2.000029 c 0,0.396006 -0.272004,0.71401 -0.610009,0.71401 l -10.781354,0 c -0.336005,0 -0.608009,-0.318004 -0.608009,-0.71401 z m 14.0002,0 0,2.000029 c 0,0.396005 0.272004,0.71401 0.610009,0.71401 l 10.781354,0 c 0.336005,0 0.608009,-0.318005 0.608009,-0.71401 l 0,-2.000029 c 0,0.396006 -0.272004,0.71401 -0.610009,0.71401 l -10.781354,0 c -0.336005,0 -0.608009,-0.318004 -0.608009,-0.71401 z"/>
 <rect style="fill:#4f4f4f" width="12" height="12" x="5" y="5" rx=".61" ry=".716"/>
 <rect style="fill:#cccccc" width="12" height="12" x="19" y="5" rx=".61" ry=".716"/>
 <rect style="fill:#ff5757" width="12" height="12" x="33" y="5" rx=".61" ry=".716"/>
 <rect style="fill:#cccccc" width="12" height="12" x="47" y="5" rx=".61" ry=".716"/>
 <rect style="fill:#cccccc" width="12" height="12" x="5" y="19" rx=".61" ry=".716"/>
 <rect style="fill:#cccccc" width="12" height="12" x="19" y="19" rx=".61" ry=".716"/>
 <rect style="fill:#ff5757" width="12" height="12" x="33" y="19" rx=".61" ry=".716"/>
 <rect style="fill:#cccccc" width="12" height="12" x="47" y="19" rx=".61" ry=".716"/>
 <rect style="fill:#cccccc" width="12" height="12" x="5" y="33" rx=".61" ry=".716"/>
 <rect style="fill:#4f4f4f" width="12" height="12" x="19" y="33" rx=".61" ry=".716"/>
 <rect style="fill:#cccccc" width="12" height="12" x="33" y="33" rx=".61" ry=".716"/>
 <rect style="fill:#4ac73e" width="12" height="12" x="47" y="33" rx=".61" ry=".716"/>
 <rect style="fill:#cccccc" width="12" height="12" x="5" y="47" rx=".61" ry=".716"/>
 <rect style="fill:#cccccc" width="12" height="12" x="19" y="47" rx=".61" ry=".716"/>
 <rect style="fill:#cccccc" width="12" height="12" x="33" y="47" rx=".61" ry=".716"/>
 <rect style="fill:#cccccc" width="12" height="12" x="47" y="47" rx=".61" ry=".716"/>
 <path style="opacity:0.1;fill:#ffffff" d="M 5.609375 5 C 5.2713702 5 5 5.3184381 5 5.7148438 L 5 6.7148438 C 5 6.3184381 5.2713702 6 5.609375 6 L 16.390625 6 C 16.72863 6 17 6.3184382 17 6.7148438 L 17 5.7148438 C 17 5.3184382 16.72863 5 16.390625 5 L 5.609375 5 z"/>
 <path style="opacity:0.2;fill:#ffffff" d="M 19.609375 5 C 19.27137 5 19 5.3184381 19 5.7148438 L 19 6.7148438 C 19 6.3184381 19.27137 6 19.609375 6 L 30.390625 6 C 30.72863 6 31 6.3184382 31 6.7148438 L 31 5.7148438 C 31 5.3184382 30.72863 5 30.390625 5 L 19.609375 5 z"/>
 <path style="opacity:0.2;fill:#ffffff" d="M 33.607422 5 C 33.270335 5.0012409 33 5.3192127 33 5.7148438 L 33 6.7148438 C 33 6.3192127 33.270335 6.0012409 33.607422 6 L 33.609375 6 L 44.388672 6 C 44.726677 6 45 6.3184382 45 6.7148438 L 45 5.7148438 C 45 5.3184382 44.726677 5 44.388672 5 L 33.609375 5 L 33.607422 5 z"/>
 <path style="opacity:0.2;fill:#ffffff" d="M 47.607422 5 C 47.270335 5.0012409 47 5.3192127 47 5.7148438 L 47 6.7148438 C 47 6.3192127 47.270335 6.0012409 47.607422 6 L 47.609375 6 L 58.388672 6 C 58.726677 6 59 6.3184382 59 6.7148438 L 59 5.7148438 C 59 5.3184382 58.726677 5 58.388672 5 L 47.609375 5 L 47.607422 5 z"/>
 <path style="opacity:0.2;fill:#ffffff" d="M 5.609375 19 C 5.2713702 19 5 19.318838 5 19.714844 L 5 20.714844 C 5 20.318838 5.2713702 20 5.609375 20 L 16.390625 20 C 16.72863 20 17 20.318838 17 20.714844 L 17 19.714844 C 17 19.318838 16.72863 19 16.390625 19 L 5.609375 19 z"/>
 <path style="opacity:0.2;fill:#ffffff" d="M 19.609375 19 C 19.27137 19 19 19.318838 19 19.714844 L 19 20.714844 C 19 20.318838 19.27137 20 19.609375 20 L 30.390625 20 C 30.72863 20 31 20.318838 31 20.714844 L 31 19.714844 C 31 19.318838 30.72863 19 30.390625 19 L 19.609375 19 z"/>
 <path style="opacity:0.2;fill:#ffffff" d="M 33.607422 19 C 33.270335 19.001239 33 19.319611 33 19.714844 L 33 20.714844 C 33 20.319611 33.270335 20.001239 33.607422 20 L 33.609375 20 L 44.388672 20 C 44.726677 20 45 20.318838 45 20.714844 L 45 19.714844 C 45 19.318838 44.726677 19 44.388672 19 L 33.609375 19 L 33.607422 19 z"/>
 <path style="opacity:0.2;fill:#ffffff" d="M 47.607422 19 C 47.270335 19.001239 47 19.319611 47 19.714844 L 47 20.714844 C 47 20.319611 47.270335 20.001239 47.607422 20 L 47.609375 20 L 58.388672 20 C 58.726677 20 59 20.318838 59 20.714844 L 59 19.714844 C 59 19.318838 58.726677 19 58.388672 19 L 47.609375 19 L 47.607422 19 z"/>
 <path style="opacity:0.2;fill:#ffffff" d="M 5.609375 33 C 5.2713702 33 5 33.318838 5 33.714844 L 5 34.714844 C 5 34.318838 5.2713702 34 5.609375 34 L 16.390625 34 C 16.72863 34 17 34.318838 17 34.714844 L 17 33.714844 C 17 33.318838 16.72863 33 16.390625 33 L 5.609375 33 z"/>
 <path style="opacity:0.1;fill:#ffffff" d="M 19.609375 33 C 19.27137 33 19 33.318838 19 33.714844 L 19 34.714844 C 19 34.318838 19.27137 34 19.609375 34 L 30.390625 34 C 30.72863 34 31 34.318838 31 34.714844 L 31 33.714844 C 31 33.318838 30.72863 33 30.390625 33 L 19.609375 33 z"/>
 <path style="opacity:0.2;fill:#ffffff" d="M 33.607422 33 C 33.270335 33.001239 33 33.319611 33 33.714844 L 33 34.714844 C 33 34.319611 33.270335 34.001239 33.607422 34 L 33.609375 34 L 44.388672 34 C 44.726677 34 45 34.318838 45 34.714844 L 45 33.714844 C 45 33.318838 44.726677 33 44.388672 33 L 33.609375 33 L 33.607422 33 z"/>
 <path style="opacity:0.2;fill:#ffffff" d="M 47.607422 33 C 47.270335 33.001239 47 33.319611 47 33.714844 L 47 34.714844 C 47 34.319611 47.270335 34.001239 47.607422 34 L 47.609375 34 L 58.388672 34 C 58.726677 34 59 34.318838 59 34.714844 L 59 33.714844 C 59 33.318838 58.726677 33 58.388672 33 L 47.609375 33 L 47.607422 33 z"/>
 <path style="opacity:0.2;fill:#ffffff" d="M 5.609375 47 C 5.2713702 47 5 47.318838 5 47.714844 L 5 48.714844 C 5 48.318838 5.2713702 48 5.609375 48 L 16.390625 48 C 16.72863 48 17 48.318838 17 48.714844 L 17 47.714844 C 17 47.318838 16.72863 47 16.390625 47 L 5.609375 47 z"/>
 <path style="opacity:0.2;fill:#ffffff" d="M 19.609375 47 C 19.27137 47 19 47.318838 19 47.714844 L 19 48.714844 C 19 48.318838 19.27137 48 19.609375 48 L 30.390625 48 C 30.72863 48 31 48.318838 31 48.714844 L 31 47.714844 C 31 47.318838 30.72863 47 30.390625 47 L 19.609375 47 z"/>
 <path style="opacity:0.2;fill:#ffffff" d="M 33.607422 47 C 33.270335 47.001239 33 47.319611 33 47.714844 L 33 48.714844 C 33 48.319611 33.270335 48.001239 33.607422 48 L 33.609375 48 L 44.388672 48 C 44.726677 48 45 48.318838 45 48.714844 L 45 47.714844 C 45 47.318838 44.726677 47 44.388672 47 L 33.609375 47 L 33.607422 47 z"/>
 <path style="opacity:0.2;fill:#ffffff" d="M 47.607422 47 C 47.270335 47.001239 47 47.319611 47 47.714844 L 47 48.714844 C 47 48.319611 47.270335 48.001239 47.607422 48 L 47.609375 48 L 58.388672 48 C 58.726677 48 59 48.318838 59 48.714844 L 59 47.714844 C 59 47.318838 58.726677 47 58.388672 47 L 47.609375 47 L 47.607422 47 z"/>
</svg>
